icons/blood_pressure.svg

<svg width="48" height="48" viewBox="0 0 48 48" fill="none" xmlns="http://www.w3.org/2000/svg">
<path d="M8 19.0345C8 16.3844 8.88462 13.846 10.3446 11.9881C11.7997 10.1363 13.7868 9 16.0312 9C19.1339 9 21.5405 11.0206 23.1024 14.2018L24 16.0301L24.8976 14.2018C26.4594 11.0208 28.866 9 31.9688 9C34.2134 9 36.2005 10.1365 37.6556 11.9884C39.1155 13.8464 40 16.3848 40 19.0345C40 19.4294 39.9808 19.821 39.9437 20.2091C40.5965 20.7172 41.1878 21.3007 41.7043 21.9466C41.8959 21.0023 42 20.0308 42 19.0345C42 15.9597 40.9789 12.9809 39.2282 10.7527C37.4727 8.5185 34.9442 7 31.9688 7C28.4651 7 25.8008 8.9635 24 11.7338C22.1991 8.96337 19.5348 7 16.0312 7C13.0561 7 10.5276 8.51823 8.77202 10.7524C7.02123 12.9804 6 15.9592 6 19.0345C6 25.8752 10.5353 31.3711 14.8491 35.0695C17.0265 36.9362 19.199 38.3899 20.825 39.3765C21.6391 39.8704 22.319 40.2489 22.7977 40.5051C23.0371 40.6332 23.2264 40.7308 23.3573 40.7971C23.4227 40.8302 23.4735 40.8555 23.5087 40.8729L23.5496 40.8929L23.561 40.8985L23.5655 40.9007L24.0139 41.1165L24.4578 40.8891L24.4611 40.8873L24.4724 40.8815L24.5129 40.8604C24.5479 40.8421 24.5985 40.8154 24.6636 40.7804C24.794 40.7105 24.9828 40.6075 25.2217 40.4728C25.6993 40.2035 26.378 39.8067 27.1908 39.2925C27.7637 38.9302 28.4045 38.5087 29.0894 38.0315C28.4181 37.7203 27.7851 37.3403 27.1996 36.9005C26.8198 37.1549 26.4587 37.3891 26.1217 37.6023C25.3407 38.0963 24.6913 38.4758 24.2393 38.7307C24.1466 38.783 24.0623 38.83 23.9868 38.8716C23.9132 38.8331 23.8312 38.7898 23.7413 38.7417C23.2904 38.5003 22.6421 38.1396 21.8625 37.6666C20.301 36.7192 18.2235 35.3281 16.1509 33.5511C11.9647 29.9621 8 24.9753 8 19.0345Z" fill="black"/>
<path d="M34 31C35.1046 31 36 30.1046 36 29C36 27.8954 35.1046 27 34 27C33.7627 27 33.5351 27.0413 33.324 27.1171L31.0251 24.8182L29.6108 26.2324L32.0302 28.6518C32.0104 28.7649 32 28.8812 32 29C32 30.1046 32.8954 31 34 31Z" fill="black"/>
<path fill-rule="evenodd" clip-rule="evenodd" d="M33.5 37C38.1944 37 42 33.1944 42 28.5C42 23.8056 38.1944 20 33.5 20C28.8056 20 25 23.8056 25 28.5C25 33.1944 28.8056 37 33.5 37ZM33.5 35C37.0899 35 40 32.0899 40 28.5C40 24.9101 37.0899 22 33.5 22C29.9101 22 27 24.9101 27 28.5C27 32.0899 29.9101 35 33.5 35Z" fill="black"/>
</svg>

<svg
  xmlns="http://www.w3.org/2000/svg"
  width="24"
  height="24"
  viewBox="0 0 24 24"
  fill="none"
  stroke="currentColor"
  stroke-width="2"
  stroke-linecap="round"
  stroke-linejoin="round"
>
  <path d="M8 19.035c0-2.65.885-5.189 2.345-7.047C11.8 10.136 13.787 9 16.03 9c3.103 0 5.51 2.02 7.071 5.202L24 16.03l.898-1.828C26.459 11.02 28.866 9 31.968 9c2.245 0 4.232 1.136 5.688 2.988C39.116 13.846 40 16.385 40 19.035q-.001.591-.056 1.174a10.6 10.6 0 0 1 1.76 1.738c.192-.945.296-1.916.296-2.912 0-3.075-1.021-6.054-2.772-8.282C37.473 8.518 34.944 7 31.968 7 28.466 7 25.802 8.963 24 11.734 22.2 8.964 19.535 7 16.031 7c-2.975 0-5.503 1.518-7.259 3.752C7.022 12.98 6 15.96 6 19.035c0 6.84 4.535 12.336 8.85 16.034a46 46 0 0 0 7.948 5.436 28 28 0 0 0 .71.368l.042.02.011.005.005.003.448.215.444-.227.003-.002.011-.005.04-.022.152-.08c.13-.07.319-.172.558-.307.477-.27 1.156-.666 1.969-1.18a51 51 0 0 0 1.898-1.261A10.5 10.5 0 0 1 27.2 36.9q-.57.381-1.077.701a44 44 0 0 1-2.135 1.27l-.246-.13a43.803 43.803 0 0 1-7.59-5.19C11.965 29.961 8 24.974 8 19.034" />
  <path d="M34 31a2 2 0 1 0-.676-3.883l-2.299-2.299-1.414 1.414 2.42 2.42Q32 28.822 32 29a2 2 0 0 0 2 2" />
  <path
    fill-rule="evenodd"
    d="M33.5 37a8.5 8.5 0 1 0 0-17 8.5 8.5 0 0 0 0 17m0-2a6.5 6.5 0 1 0 0-13 6.5 6.5 0 0 0 0 13"
    clip-rule="evenodd"
  />
</svg>
